X: 1
P: Cold Frosty Morning
R: Hornpipe, reel
C: arr. T. Traub 8-7-05
M: 4/4
K: Am
|: "Am"EGAB A2 AB|"Am"c2 d2 e4|"G"B2>A2 G2 GA|"G"B2 c2 d4|"Am"EGAB A2 AB|"Am"c2 d2 e2 ed|
"Am"cBAc "G"BAGB|"Am"A4 A4 :||: "A"e2 a2 a2 ag|"A"abag e4|"A"edef gagf|"A"ed c2 "E"e4|
"Am"A2 A2 "C"c2 c2|"D"d2 d2 "E"e2 ed|"Am"cBAc "G"BAGB|"Am"A4 A4 :|
